src/main/resources/icons/KubernetesIcons/icons/labels_gutter_dark.svg

<svg xmlns="http://www.w3.org/2000/svg" width="12" height="12" viewBox="0 0 12 12">
  <g fill="none" fill-rule="evenodd">
    <path fill="#326CE5" d="M11.0772205,8.2066523 L8.61520924,5.7443 L6.22236386,6.2234768 L5.7419,8.6153 L8.42935719,11.3023693 C8.35455799,11.3265382 8.27558483,11.3392243 8.19508641,11.3391657 L3.81470283,11.3401751 C3.58507525,11.3402198 3.36792021,11.236565 3.2246961,11.0585465 L0.493201996,7.66234869 C0.477931139,7.64320254 0.463613889,7.62332683 0.450301592,7.60279284 C0.339382512,7.43309233 0.302425236,7.22609518 0.347845334,7.02893685 L1.32143214,2.79340522 C1.37255398,2.57135699 1.52283682,2.3844787 1.72974305,2.28566633 L5.67607564,0.400067402 C5.76660165,0.356820425 5.86492409,0.33193953 5.96527484,0.326884361 C6.0915011,0.320501963 6.21732196,0.345666135 6.33119004,0.400067402 L10.2780272,2.2846569 C10.4849334,2.38346928 10.6352163,2.57034757 10.6863381,2.7923958 L11.661439,7.02792743 C11.7125686,7.25007847 11.6588784,7.48323162 11.5155777,7.66133927 L11.0772205,8.2066523 Z"/>
    <path fill="#FFF" fill-rule="nonzero" d="M8.62443887,11.4974228 C8.52409555,11.5411787 8.41444421,11.5645559 8.3019707,11.5644795 L3.67890504,11.5654835 C3.43657079,11.5655261 3.20739902,11.4566985 3.05623935,11.269796 L0.173509143,7.70347267 C0.157353666,7.68346437 0.142197882,7.66268963 0.128095924,7.64122266 C0.0109846883,7.46291575 -0.0279693454,7.24541556 0.0201133817,7.03830116 L1.04746131,2.59093936 C1.10141309,2.35778567 1.26001706,2.16155869 1.47838229,2.05779812 L5.64378363,0.0783481189 C5.7391531,0.0328338037 5.84276616,0.0065507237 5.94855679,0.00103761918 C6.08188329,-0.00572906821 6.21479468,0.0206830252 6.33507374,0.0778461027 L10.5004751,2.05729611 C10.71872,2.16095117 10.8773049,2.35696976 10.9313961,2.58993533 L11.9602578,7.03779914 C12.0140917,7.27092129 11.9574499,7.51554738 11.8063574,7.70246864 L11.2552011,8.38465756 L11.0404092,8.1698359 L11.4995659,7.60156337 C11.6428328,7.42440655 11.6965103,7.19249809 11.6453928,6.971533 L10.6705224,2.75861278 C10.6194126,2.53774996 10.4691653,2.35186932 10.262308,2.25358445 L6.31640386,0.379055842 C6.20256269,0.324944996 6.07677158,0.299915163 5.95057515,0.306263488 C5.85024813,0.311291671 5.75194894,0.336039739 5.66144433,0.379055842 L1.71604481,2.25458849 C1.50918749,2.35287335 1.35894018,2.53875399 1.30783043,2.75961681 L0.334473773,6.97253703 C0.289064413,7.16864283 0.326012952,7.37453493 0.436905811,7.54332949 C0.450214961,7.56375386 0.464528826,7.58352346 0.479796073,7.60256741 L3.21064429,10.9806346 C3.35383454,11.1577027 3.57093825,11.2608042 3.80051154,11.2607597 L8.1798596,11.2597557 C8.24268617,11.2598012 8.30458343,11.2521213 8.36429158,11.2373131 L8.62443887,11.4974228 Z"/>
    <path fill="#FFF" fill-rule="nonzero" d="M6.21855466,9.09188586 C5.76692996,9.12224058 5.32433492,9.05087679 4.91773459,8.89480797 L4.86423527,8.99171241 C4.82441384,9.00237416 4.78600528,9.01318336 4.76244652,9.04128937 C4.67641298,9.14392861 4.6420757,9.30864824 4.57957847,9.46563569 C4.55604458,9.53978681 4.54490897,9.60548867 4.51144253,9.68215655 C4.50386832,9.69950859 4.491148,9.72376409 4.48216932,9.74221712 C4.48210471,9.74235763 4.48223392,9.74257567 4.48216932,9.74272102 C4.48208049,9.74290514 4.48176232,9.74304081 4.48166541,9.74322493 C4.41862859,9.87337825 4.27296959,9.93296188 4.15562235,9.87646853 C4.0390077,9.82032775 3.99447688,9.67072603 4.05518493,9.54083596 C4.06421029,9.5221305 4.0761179,9.49494186 4.08546757,9.47724242 C4.12453976,9.40327381 4.16885223,9.35311462 4.21214994,9.28848065 C4.30157255,9.14857954 4.38010213,9.02309201 4.42594891,8.90420318 C4.43746746,8.86472075 4.42041244,8.8106274 4.4049494,8.77064754 L4.4478498,8.66768657 C3.81910811,8.29512969 3.32257007,7.70139295 3.08563581,6.96681174 L2.98267484,6.98447661 C2.95507096,6.96902697 2.89957815,6.93240388 2.84690768,6.9365291 C2.72079834,6.95477588 2.59135354,7.00160415 2.4350638,7.05765965 C2.3624168,7.08549206 2.30389298,7.11728205 2.22308533,7.13891806 C2.20600625,7.14349114 2.18153917,7.14825949 2.16201535,7.15254525 C2.16044614,7.15292964 2.15905411,7.1536968 2.15747295,7.15405857 C2.15641912,7.15429276 2.15495101,7.15433152 2.15393998,7.15456248 C2.01388302,7.18475257 1.87789411,7.10806175 1.84909476,6.98195144 C1.82030218,6.85587069 1.90973852,6.72790498 2.04896017,6.69426638 C2.04999688,6.69403058 2.05141427,6.69350729 2.05249314,6.69325696 C2.05318116,6.69310191 2.05382396,6.69289841 2.05451198,6.69275306 C2.0743052,6.68811004 2.09951069,6.68154331 2.11760081,6.67811645 C2.19979306,6.66254633 2.26668733,6.66639343 2.34421589,6.65994686 C2.50934929,6.64263472 2.64613169,6.62857744 2.76766811,6.5902968 C2.806202,6.57448506 2.84304361,6.52150853 2.86911575,6.48784054 L2.96803904,6.45907203 C2.85719392,5.691459 3.04475957,4.93809513 3.45003688,4.32818374 L3.37433029,4.26055252 C3.36950251,4.2310842 3.36316237,4.16294826 3.32688749,4.12428065 C3.23399441,4.03706035 3.11687941,3.96472038 2.97560889,3.87747715 C2.90855424,3.83803219 2.8470792,3.81259639 2.77978116,3.76290783 C2.76546692,3.75233927 2.7463971,3.73616415 2.73082423,3.7235404 C2.72966574,3.72264452 2.72844119,3.7219326 2.72729126,3.72101685 C2.61396361,3.63066234 2.58792716,3.47476458 2.66924953,3.37276651 C2.71499344,3.31539262 2.78489465,3.28700301 2.8575066,3.28948926 C2.91398251,3.29142299 2.97246143,3.3120386 3.02204227,3.35156867 C3.03815134,3.36431483 3.06013023,3.3810709 3.07453217,3.39345965 C3.13795096,3.44801265 3.17660517,3.50190476 3.22998305,3.55850003 C3.3464764,3.67681341 3.44275031,3.7750309 3.54845546,3.84618509 C3.60397023,3.87851952 3.64659268,3.86550735 3.68876501,3.85981227 C3.70233599,3.86983962 3.74797492,3.90258057 3.77406192,3.92037755 C4.17609292,3.49382552 4.70414897,3.17790266 5.31746703,3.03864808 C5.45999974,3.00628587 5.60270009,2.98478003 5.74445223,2.97303569 L5.75000404,2.87310299 C5.78145147,2.84265739 5.81672776,2.79885642 5.82672006,2.75096301 C5.83699467,2.62395537 5.82034504,2.4873088 5.80047511,2.32246369 C5.78950714,2.24544468 5.77128458,2.18146369 5.76817362,2.09786746 C5.76753406,2.08072118 5.76848533,2.05699575 5.76867753,2.03730218 C5.76862908,2.03509098 5.76817379,2.03296538 5.76817362,2.03074094 C5.76815812,1.88580291 5.87392932,1.76830482 6.0043782,1.76829157 C6.13482789,1.76827833 6.24056808,1.88580291 6.24058358,2.03074094 C6.24065949,2.05128856 6.24179489,2.07886401 6.24108749,2.09786746 C6.23797653,2.18146369 6.21975397,2.24544468 6.20878601,2.32246369 C6.18891607,2.4873088 6.17176173,2.62395537 6.18203634,2.75096301 C6.19136873,2.81452651 6.22851074,2.83964431 6.25925707,2.8690653 C6.2599564,2.88618638 6.26270832,2.94307655 6.26480889,2.97454983 C7.01584076,3.04126595 7.71332437,3.38470966 8.22560646,3.92189249 L8.31544496,3.85779424 C8.34589056,3.85958746 8.41297992,3.86881405 8.45878358,3.84214821 C8.56448501,3.77098837 8.66076894,3.67227795 8.77725599,3.55395844 C8.83063096,3.49736043 8.8697957,3.44347462 8.93321158,3.38891806 C8.94769023,3.37646213 8.969574,3.35979989 8.98570148,3.34702708 C9.09900506,3.25664221 9.25664097,3.26624786 9.33798951,3.36822493 C9.41933804,3.47020199 9.39325136,3.62609039 9.27994778,3.71647526 C9.26396097,3.72933384 9.24318062,3.74712921 9.22796259,3.75836624 C9.16066714,3.80805836 9.0986827,3.83348705 9.03163015,3.87293556 C8.89036431,3.96018622 8.77323995,4.03251392 8.68035155,4.11973906 C8.63647645,4.16666859 8.63976733,4.21110509 8.63593702,4.25348738 C8.62283376,4.26552517 8.57662423,4.30644501 8.55215505,4.32868926 C8.75574934,4.63172415 8.90840582,4.97567241 8.99478628,5.35173771 C9.06008629,5.63602743 9.08332623,5.92019501 9.06870555,6.19785912 L8.61520924,5.7443 L8.43908317,5.77956995 C8.42866573,5.68305266 8.41243708,5.58606653 8.39014536,5.48901739 C8.32801023,5.21850686 8.22363688,4.96898471 8.08580485,4.74557863 L7.16319462,5.57128522 L7.16369852,5.57380878 C7.13153384,5.60176748 7.10778918,5.63960899 7.09758143,5.6843404 C7.07266601,5.79353362 7.13843877,5.90239898 7.24546165,5.93164861 L7.24647107,5.93669572 L7.41379876,5.98488723 L6.37060615,6.1937907 L6.43035397,5.93417217 L6.1941494,5.63891645 L5.81410229,5.63891645 L5.57739301,5.93366746 L5.66218439,6.30210622 L6.0043782,6.46664188 L6.19159837,6.37663219 L6.03488821,7.15675951 C6.02220475,7.15481899 6.00947011,7.15409793 5.99680754,7.15456328 C5.9248757,7.15720603 5.85664205,7.1973319 5.82066353,7.2645902 L5.81965411,7.2645902 L5.22005788,8.34870864 C5.39708897,8.40903134 5.5820025,8.44937516 5.77154903,8.46770256 L5.7419,8.6153 L6.21855466,9.09188586 Z M10.0100887,7.13937265 L9.50780729,6.63702168 C9.55735377,6.64314099 9.60960018,6.6485863 9.6650428,6.65439585 C9.74257169,6.66083838 9.80946482,6.65699968 9.89165788,6.67256544 C9.91132544,6.67629012 9.94004663,6.68411112 9.96029852,6.68871618 C10.0995292,6.72231763 10.1889242,6.85031306 10.1601639,6.97640124 C10.1425263,7.05372656 10.0845731,7.11245462 10.0100887,7.13937265 Z M5.70861777,3.60039101 C5.62489088,3.61054013 5.54084776,3.62470546 5.45676716,3.64379612 C4.99647769,3.7483053 4.59708183,3.97521093 4.28482908,4.28225507 L5.30081158,5.00247715 L5.30283042,5.00146773 C5.33724458,5.02660571 5.37959392,5.04133987 5.42547511,5.04133987 C5.53748113,5.04133987 5.62871053,4.95282735 5.63341589,4.84197917 L5.63846299,4.83945561 L5.70861777,3.60039101 Z M6.30064334,3.60039101 L6.37079812,4.83743838 L6.37180754,4.83794229 C6.37361287,4.88052145 6.38862337,4.92269798 6.4172315,4.95856813 C6.48706843,5.04612759 6.61330229,5.06236393 6.70289772,4.99692614 L6.70643069,4.99843946 L7.71585196,4.28275978 C7.33501766,3.90982013 6.83803451,3.66648501 6.30064334,3.60039101 Z M3.91639031,4.74507472 C3.64107753,5.19358256 3.5106469,5.731539 3.57116824,6.28494686 L4.76026649,5.94174363 L4.76127591,5.93770595 C4.80238633,5.92647295 4.8406778,5.90241335 4.86928399,5.86654175 C4.93911785,5.77897147 4.92677045,5.65265701 4.84303904,5.57986611 L4.84404846,5.574819 L3.91639031,4.74507472 Z M4.96669314,6.65439505 C4.95328399,6.65420689 4.93945104,6.65541803 4.92581158,6.65792802 L4.92379274,6.65540447 L3.70441185,6.86233583 C3.89259995,7.38301017 4.24439715,7.80737782 4.68607403,8.0908007 L5.15848318,6.94914525 L5.15495021,6.94460285 C5.17179947,6.9054575 5.17676889,6.86113712 5.16655855,6.81640635 C5.14474891,6.72085857 5.06055704,6.65571052 4.96669314,6.65439424 Z"/>
    <path fill="#9AA7B0" d="M8.1109,8.1123 C8.0089,8.2133 7.8759,8.2613 7.7429,8.2583 C7.6199,8.2553 7.4979,8.2063 7.4039,8.1113 C7.3059,8.0143 7.2569,7.8863 7.2569,7.7583 C7.2569,7.6313 7.3059,7.5033 7.4039,7.4053 C7.5019,7.3073 7.6299,7.2583 7.7569,7.2583 C7.8849,7.2583 8.0129,7.3073 8.1109,7.4053 C8.2089,7.5033 8.2569,7.6313 8.2569,7.7583 C8.2569,7.8863 8.2089,8.0143 8.1109,8.1123 Z M6.6969,6.6983 L6.3419,8.4653 L9.8779,12.0003 L12.0009,9.8803 L8.4649,6.3443 L6.6969,6.6983 Z"/>
  </g>
</svg>

<svg xmlns="http://www.w3.org/2000/svg" width="12" height="12" viewBox="0 0 12 12"><rect id="frame" width="12" height="12" fill="none"/><g fill="none" fill-rule="evenodd"><path fill="#326CE5" d="M11.077 8.207L8.615 5.744l-2.393.48-.48 2.391 2.687 2.687a.76.76 0 0 1-.234.037l-4.38.001a.757.757 0 0 1-.59-.281L.493 7.662a.749.749 0 0 1-.145-.633l.973-4.236a.75.75 0 0 1 .409-.507L5.676.4a.76.76 0 0 1 .655 0l3.947 1.885a.75.75 0 0 1 .408.507l.975 4.236a.744.744 0 0 1-.145.633l-.439.546z"/><path fill="#FFF" fill-rule="nonzero" d="M8.624 11.497a.805.805 0 0 1-.322.067l-4.623.001a.8.8 0 0 1-.623-.295L.174 7.703a.786.786 0 0 1-.154-.665l1.027-4.447a.788.788 0 0 1 .431-.533L5.644.078a.805.805 0 0 1 .691 0l4.165 1.98c.219.103.377.299.431.532l1.03 4.448a.778.778 0 0 1-.155.664l-.55.683-.216-.215.46-.568a.737.737 0 0 0 .145-.63l-.974-4.213a.746.746 0 0 0-.409-.505L6.316.379a.763.763 0 0 0-.655 0L1.716 2.255a.746.746 0 0 0-.408.505L.334 6.973a.736.736 0 0 0 .146.63l2.73 3.378c.144.177.36.28.59.28l4.38-.001a.764.764 0 0 0 .184-.023l.26.26z"/><path fill="#FFF" fill-rule="nonzero" d="M6.219 9.092a3.055 3.055 0 0 1-1.301-.197l-.054.097c-.04.01-.078.021-.102.05-.086.102-.12.267-.182.424-.024.074-.035.14-.069.216-.007.018-.02.042-.029.06v.001c-.063.13-.209.19-.326.133-.117-.056-.162-.205-.1-.335.008-.019.02-.046.03-.064.039-.074.083-.124.126-.189.09-.14.168-.265.214-.384.011-.04-.006-.093-.021-.133l.043-.103a3.074 3.074 0 0 1-1.362-1.701l-.103.017c-.028-.015-.083-.052-.136-.047-.126.018-.256.065-.412.12-.073.028-.131.06-.212.082l-.061.014-.005.001h-.003c-.14.03-.276-.046-.305-.172-.029-.126.06-.254.2-.288h.003l.003-.001.063-.015c.082-.015.149-.012.226-.018.165-.017.302-.031.424-.07.038-.016.075-.068.101-.102l.099-.029a3.057 3.057 0 0 1 .482-2.13l-.076-.068c-.004-.03-.01-.098-.047-.137a2.205 2.205 0 0 0-.351-.247c-.067-.039-.129-.064-.196-.114-.015-.01-.034-.027-.05-.04l-.003-.002c-.113-.09-.14-.246-.058-.348a.228.228 0 0 1 .189-.084.28.28 0 0 1 .164.063l.053.041c.063.055.102.109.155.166.116.118.213.216.318.287.056.033.099.02.14.014l.086.06a3.038 3.038 0 0 1 1.97-.947l.006-.1a.258.258 0 0 0 .077-.122c.01-.127-.007-.264-.027-.429-.01-.077-.029-.14-.032-.224v-.06-.007c0-.145.106-.263.236-.263s.237.118.237.263v.067c-.003.083-.021.147-.032.224-.02.165-.037.302-.027.429.01.064.047.089.077.118l.006.106c.75.066 1.448.41 1.96.947l.09-.064c.03.002.098.01.144-.016.105-.071.202-.17.318-.288.054-.057.093-.11.156-.165l.053-.042c.113-.09.27-.08.352.021.081.102.055.258-.058.348l-.052.042c-.067.05-.13.075-.196.115-.142.087-.259.16-.352.247-.044.047-.04.091-.044.133l-.084.076a3.058 3.058 0 0 1 .517 1.869l-.454-.454-.176.036a2.492 2.492 0 0 0-.353-1.034l-.923.825v.003a.208.208 0 0 0 .082.358l.001.005.168.048-1.043.209.06-.26-.237-.295h-.38l-.237.295.085.368.342.165.188-.09-.157.78a.209.209 0 0 0-.214.108H5.82l-.6 1.084c.177.06.362.1.552.119l-.03.147.477.477zm3.791-1.953l-.502-.502.157.017c.078.007.144.003.227.019.02.003.048.011.068.016.14.033.229.161.2.287a.23.23 0 0 1-.15.163zM5.71 3.6a2.433 2.433 0 0 0-1.424.682l1.016.72h.002a.208.208 0 0 0 .33-.16l.005-.003.07-1.239zm.592 0l.07 1.237a.208.208 0 0 0 .331.159l.004.002 1.01-.715A2.454 2.454 0 0 0 6.3 3.6zM3.916 4.745a2.433 2.433 0 0 0-.345 1.54l1.19-.343v-.004a.208.208 0 0 0 .082-.358l.001-.005-.928-.83zm1.05 1.91a.21.21 0 0 0-.04.003l-.002-.003-1.22.207c.189.521.54.945.982 1.229l.472-1.142-.003-.004a.208.208 0 0 0-.188-.29z"/><path fill="#9AA7B0" d="M8.11 8.112a.503.503 0 0 1-.706 0 .495.495 0 0 1 0-.707.498.498 0 0 1 .853.353.498.498 0 0 1-.146.354zM6.698 6.698l-.355 1.767L9.878 12 12 9.88 8.465 6.344l-1.768.354z"/></g></svg>
